X:79
T:Lover's Wrangle. THO5.079, The
M:6/8
L:1/8
B:Thompson's Complete Collection of 200 Favourite Dances Vol.5
F:https://www.libraryofdance.org/manuals/1780c-Thompson-Compleat-5.pdf
Z:vmp. Peter Dunk 2024
Q:3/8=100
K:D
agf agf|agf e2d|agf bge|Bed c2A|
agf agf|agf e2d|Bed cBc|d3 D3:|
|:FEF GFG|AGA BAB|Bgf edc|dAG FED|
FEF GFG|AGA BAB|Bgf edc|d3 D3:|
W:
W:Cast off one Couple and turn ./.
W:four hands round at bottom ./:
W:Lead through the top & cast off:/.
W:Right and Left :/:

